package/converter/svg/duotone/circle-f.svg

<svg xmlns="http://www.w3.org/2000/svg" viewBox="0 0 512 512"><!-- Font Awesome Pro 6.0.0-alpha2 by @fontawesome - https://fontawesome.com License - https://fontawesome.com/license (Commercial License) --><defs><style>.fa-secondary{opacity:.4}</style></defs><path d="M256 16C123.451 16 16 123.451 16 256S123.451 496 256 496S496 388.549 496 256S388.549 16 256 16ZM328 176H208V240H296C309.25 240 320 250.75 320 264S309.25 288 296 288H208V360C208 373.25 197.25 384 184 384S160 373.25 160 360V152C160 138.75 170.75 128 184 128H328C341.25 128 352 138.75 352 152S341.25 176 328 176Z" class="fa-secondary"/><path d="M328 128H184C170.75 128 160 138.75 160 152V360C160 373.25 170.75 384 184 384S208 373.25 208 360V288H296C309.25 288 320 277.25 320 264S309.25 240 296 240H208V176H328C341.25 176 352 165.25 352 152S341.25 128 328 128Z" class="fa-primary"/></svg>

<svg xmlns="http://www.w3.org/2000/svg" viewBox="0 0 512 512"><!--! Font Awesome Pro 6.6.0 by @fontawesome - https://fontawesome.com License - https://fontawesome.com/license (Commercial License) Copyright 2024 Fonticons, Inc. --><defs><style>.fa-secondary{opacity:.4}</style></defs><path class="fa-secondary" d="M0 256a256 256 0 1 0 512 0A256 256 0 1 0 0 256zM160 152c0-13.3 10.7-24 24-24l144 0c13.3 0 24 10.7 24 24s-10.7 24-24 24l-120 0 0 64 88 0c13.3 0 24 10.7 24 24s-10.7 24-24 24l-88 0 0 72c0 13.3-10.7 24-24 24s-24-10.7-24-24l0-96 0-112z"/><path class="fa-primary" d="M160 152c0-13.3 10.7-24 24-24l144 0c13.3 0 24 10.7 24 24s-10.7 24-24 24l-120 0 0 64 88 0c13.3 0 24 10.7 24 24s-10.7 24-24 24l-88 0 0 72c0 13.3-10.7 24-24 24s-24-10.7-24-24l0-96 0-112z"/></svg>
